X: 38356
T: Stan Chapman's
R: jig
M: 6/8
K: Amajor
~E3 EFA|~B3 Bce|fea fec|ecA BAF|
~E3 EFA|~B3 Bce|fea fec|ecA A3:|
e3 ecA|~f3 fga|fec BAB|cAF F af|
e3 ecA|~f3 fga|fec BAB|1 cAA A af:|2 cAA A3||

